X: 02073
T: REEL MAISON BLANCHE
C: Bob McQuillen  Apr '76
N: For Julia Whitehouse
B: Bob's Note Book 1&2 #73
R: reel
Z: 2005 John Chambers
M: C
L: 1/8
K: Am
cA \
| E2A2 A2cd | e2 d4 ed | c2A2 BAG2 | A6 cA |\
| E2A2 A2cd | e2 d4 ed | c2A2 BAG2 | A6   :|
|: ef \
| g2ga gece | d2 d4  cd | e2ef ecA2 | B6 cA |\
| E2A2 A2cd | e2d2 d2ed | c2A2 BAG2 | A6   :|
%%begintext align
%% For Julie Whitehouse
%%endtext

%%sep 1 1 500

%%sep 1 1 500

